;FLAVOR:Marlin
;TIME:6247
;Filament used: 11.4984m
;Layer height: 0.32
;MINX:35.4
;MINY:54.25
;MINZ:0.32
;MAXX:211.94
;MAXY:202.435
;MAXZ:30
;Generated with Cura_SteamEngine 4.13.1
M140 S50
M105
M190 S50
M104 S200
M105
M109 S200
M82 ;absolute extrusion mode
; Ender 3 Custom Start G-code
G92 E0 ; Reset Extruder
G28 ; Home all axes
G1 Z2.0 F3000 ; Move Z Axis up little to prevent scratching of Heat Bed
G1 X0.1 Y20 Z0.3 F5000.0 ; Move to start position
G1 X0.1 Y200.0 Z0.3 F1500.0 E15 ; Draw the first line
G1 X0.4 Y200.0 Z0.3 F5000.0 ; Move to side a little
G1 X0.4 Y20 Z0.3 F1500.0 E30 ; Draw the second line
G92 E0 ; Reset Extruder
G1 Z2.0 F3000 ; Move Z Axis up little to prevent scratching of Heat Bed
G1 X5 Y20 Z0.3 F5000.0 ; Move over to prevent blob squish
G92 E0
G92 E0
G1 F2700 E-5
;LAYER_COUNT:78
;LAYER:0
M107
;MESH:V2HUAYU_BIG_FAN_to_MSI_Pulse76_v6_002.stl
G0 F6000 X41.3 Y125.755 Z0.32
;TYPE:WALL-INNER
G1 F2700 E0
G1 F1200 X41.018 Y125.64 E0.03241
G1 X40.366 Y125.467 E0.10421
G1 X39.698 Y125.38 E0.17591
G1 X39.024 Y125.38 E0.24764
G1 X38.356 Y125.467 E0.31934
G1 X37.705 Y125.64 E0.39103
G1 X37.082 Y125.895 E0.46268
G1 X36.497 Y126.229 E0.53437
G1 X36.2 Y126.454 E0.57403
G1 X36.2 Y78.704 E5.65618
G1 X36.761 Y79.078 E5.72794
G1 X37.372 Y79.378 E5.80039
G1 X38.014 Y79.596 E5.87255
G1 X38.681 Y79.73 E5.94496
G1 X39.363 Y79.775 E6.0177
G1 X40.062 Y79.727 E6.09227
G1 X40.71 Y79.596 E6.16264
G1 X41.3 Y79.396 E6.22894
G1 X41.3 Y125.755 E11.16304
G1 F2700 E6.16304
G0 F6000 X41.89 Y126.716
G0 X41.614 Y127.269
G0 X41.946 Y127.46
G1 F2700 E11.16304
G0 F6000 X42.1 Y127.137
;TYPE:WALL-OUTER
G1 F1200 X41.785 Y126.898 E11.20513
G1 X41.29 Y126.616 E11.26576
G1 X40.763 Y126.4 E11.32638
G1 X40.211 Y126.254 E11.38715
G1 X39.646 Y126.18 E11.4478
G1 X39.076 Y126.18 E11.50846
G1 X38.511 Y126.254 E11.56911
G1 X37.96 Y126.4 E11.62978
G1 X37.433 Y126.616 E11.6904
G1 X36.938 Y126.898 E11.75103
G1 X36.484 Y127.242 E11.81166
G1 X36.078 Y127.641 E11.87224
G1 X35.727 Y128.09 E11.9329
G1 X35.437 Y128.581 E11.99359
G1 X35.4 Y128.667 E12.00356
G1 X35.4 Y76.467 E17.55933
G1 X35.55 Y76.772 E17.59551
G1 X35.87 Y77.251 E17.65682
G1 X36.25 Y77.683 E17.71805
G1 X36.682 Y78.063 E17.77929
G1 X37.161 Y78.383 E17.8406
G1 X37.678 Y78.637 E17.90191
G1 X38.222 Y78.822 E17.96306
G1 X38.786 Y78.935 E18.02428
G1 X39.362 Y78.973 E18.08572
G1 X39.955 Y78.932 E18.14899
G1 X40.501 Y78.822 E18.20827
G1 X41.045 Y78.637 E18.26942
G1 X41.561 Y78.383 E18.33063
G1 X42.04 Y78.063 E18.39195
G1 X42.1 Y78.01 E18.40047
G1 X42.1 Y127.137 E23.62917
G1 F2700 E18.62917
G0 F6000 X41.946 Y127.46
G0 X42.446 Y127.754
G0 X44.654 Y128.701
G0 X43.138 Y134.671
G0 X37.419 Y135.797
G0 X36.591 Y135.422
G0 X36.582 Y137.988
G0 X72.8 Y138.37
;TYPE:WALL-INNER
G1 F2700 E23.62917
G1 F1200 X36.2 Y138.37 E27.5246
G1 X36.2 Y134.691 E27.91616
G1 X36.36 Y134.82 E27.93804
G1 X36.933 Y135.174 E28.00972
G1 X37.549 Y135.449 E28.08152
G1 X38.288 Y135.67 E28.16362
G1 X40.435 Y135.67 E28.39213
G1 X41.174 Y135.449 E28.47422
G1 X41.79 Y135.174 E28.54602
G1 X42.363 Y134.82 E28.61771
G1 X42.887 Y134.398 E28.68932
G1 X43.352 Y133.909 E28.76114
G1 X43.749 Y133.367 E28.83264
G1 X44.074 Y132.776 E28.90443
G1 X44.319 Y132.147 E28.97627
G1 X44.481 Y131.494 E29.04788
G1 X44.558 Y130.825 E29.11955
G1 X44.546 Y130.151 E29.1913
G1 X44.449 Y129.488 E29.26262
G1 X44.267 Y128.838 E29.33446
G1 X44.023 Y128.27 E29.40025
G1 X67.7 Y128.27 E31.92025
G1 X67.7 Y76.87 E37.39088
G1 X44.016 Y76.87 E39.91163
G1 X44.168 Y76.561 E39.94828
G1 X44.386 Y75.918 E40.02054
G1 X44.519 Y75.251 E40.09293
G1 X44.564 Y74.572 E40.16536
G1 X44.519 Y73.893 E40.23778
G1 X44.386 Y73.225 E40.31027
G1 X44.168 Y72.581 E40.38264
G1 X43.867 Y71.971 E40.45503
G1 X43.489 Y71.405 E40.52747
G1 X43.04 Y70.893 E40.59995
G1 X42.528 Y70.444 E40.67243
G1 X41.962 Y70.067 E40.74481
G1 X41.353 Y69.766 E40.81712
G1 X40.708 Y69.547 E40.88961
G1 X40.041 Y69.414 E40.962
G1 X39.361 Y69.369 E41.03453
G1 X38.682 Y69.414 E41.10696
G1 X38.015 Y69.547 E41.17935
G1 X37.371 Y69.765 E41.25171
G1 X36.761 Y70.066 E41.32411
G1 X36.2 Y70.44 E41.39587
G1 X36.2 Y67.77 E41.68004
G1 X72.8 Y67.77 E45.57547
G1 X72.8 Y138.37 E53.0896
G0 F6000 X73.33 Y138.9
G0 X73.6 Y139.17
;TYPE:WALL-OUTER
G1 F1200 X35.4 Y139.17 E57.15532
G1 X35.4 Y132.481 E57.86725
G1 X35.65 Y132.935 E57.92241
G1 X35.985 Y133.395 E57.98297
G1 X36.379 Y133.808 E58.04373
G1 X36.823 Y134.166 E58.10443
G1 X37.308 Y134.465 E58.16507
G1 X37.828 Y134.697 E58.22567
G1 X38.405 Y134.87 E58.28979
G1 X40.318 Y134.87 E58.49339
G1 X40.895 Y134.697 E58.5575
G1 X41.415 Y134.465 E58.61811
G1 X41.9 Y134.166 E58.67875
G1 X42.344 Y133.808 E58.73945
G1 X42.737 Y133.395 E58.80013
G1 X43.073 Y132.936 E58.86067
G1 X43.348 Y132.436 E58.92141
G1 X43.555 Y131.905 E58.98206
G1 X43.692 Y131.352 E59.0427
G1 X43.757 Y130.786 E59.10334
G1 X43.747 Y130.216 E59.16401
G1 X43.665 Y129.654 E59.22446
G1 X43.511 Y129.105 E59.28515
G1 X43.286 Y128.581 E59.34584
G1 X42.996 Y128.09 E59.40654
G1 X42.645 Y127.641 E59.46719
G1 X42.471 Y127.47 E59.49316
G1 X66.9 Y127.47 E62.0932
G1 X66.9 Y77.67 E67.39353
G1 X42.485 Y77.67 E69.99208
G1 X42.853 Y77.251 E70.05143
G1 X43.173 Y76.772 E70.11274
G1 X43.427 Y76.255 E70.17405
G1 X43.612 Y75.711 E70.23521
G1 X43.724 Y75.146 E70.29651
G1 X43.762 Y74.572 E70.35774
G1 X43.724 Y73.998 E70.41896
G1 X43.612 Y73.432 E70.48037
G1 X43.427 Y72.888 E70.54153
G1 X43.173 Y72.372 E70.60274
G1 X42.853 Y71.893 E70.66405
G1 X42.473 Y71.46 E70.72537
G1 X42.04 Y71.08 E70.78668
G1 X41.561 Y70.761 E70.84793
G1 X41.046 Y70.506 E70.9091
G1 X40.501 Y70.321 E70.97035
G1 X39.936 Y70.209 E71.03166
G1 X39.361 Y70.171 E71.09299
G1 X38.787 Y70.209 E71.15422
G1 X38.222 Y70.321 E71.21552
G1 X37.678 Y70.506 E71.27668
G1 X37.161 Y70.761 E71.33803
G1 X36.682 Y71.08 E71.39928
G1 X36.249 Y71.46 E71.4606
G1 X35.87 Y71.893 E71.52184
G1 X35.55 Y72.372 E71.58316
G1 X35.4 Y72.677 E71.61933
G1 X35.4 Y66.97 E72.22674
G1 X73.6 Y66.97 E76.29246
G1 X73.6 Y139.17 E83.97688
G0 F6000 X73.33 Y138.9
G0 X72.49 Y137.58
G0 X72.01 Y137.58
;TYPE:SKIN
G1 F1200 X36.99 Y137.58 E87.70415
G1 X36.99 Y136.064 E87.8655
G1 X37.274 Y136.191 E87.89861
G1 X38.172 Y136.46 E87.99838
G1 X40.551 Y136.46 E88.25158
G1 X41.449 Y136.191 E88.35136
G1 X42.16 Y135.873 E88.43425
G1 X42.819 Y135.466 E88.51669
G1 X43.424 Y134.981 E88.59922
G1 X43.96 Y134.416 E88.68211
G1 X44.417 Y133.792 E88.76443
G1 X44.791 Y133.111 E88.84712
G1 X45.074 Y132.386 E88.92995
G1 X45.26 Y131.634 E89.0124
G1 X45.348 Y130.863 E89.09499
G1 X45.334 Y130.086 E89.17771
G1 X45.223 Y129.324 E89.25966
G1 X45.149 Y129.06 E89.28884
G1 X68.49 Y129.06 E91.77308
G1 X68.49 Y76.08 E97.41187
G1 X45.16 Y76.08 E99.89494
G1 X45.303 Y75.355 E99.97359
G1 X45.356 Y74.572 E100.05712
G1 X45.303 Y73.789 E100.14065
G1 X45.151 Y73.02 E100.22408
G1 X44.899 Y72.278 E100.30748
G1 X44.553 Y71.576 E100.39078
G1 X44.117 Y70.923 E100.47435
G1 X43.599 Y70.334 E100.55783
G1 X43.01 Y69.816 E100.64131
G1 X42.357 Y69.382 E100.72476
G1 X41.657 Y69.035 E100.80792
G1 X40.913 Y68.782 E100.89156
G1 X40.145 Y68.63 E100.97488
G1 X39.361 Y68.577 E101.05852
G1 X38.578 Y68.63 E101.14204
G1 X37.81 Y68.782 E101.22537
G1 X37.068 Y69.034 E101.30877
G1 X36.99 Y69.072 E101.31801
G1 X36.99 Y68.56 E101.3725
G1 X72.01 Y68.56 E105.09976
G1 X72.01 Y137.58 E112.44573
G1 F2700 E107.44573
G0 F6000 X72.49 Y137.58
G0 X72.418 Y137.988
G0 X37.697 Y138.06
G1 F2700 E112.44573
G0 F6000 X37.697 Y137.258
G1 F1200 X37.309 Y136.87 E112.50413
G0 F6000 X36.51 Y136.87
G0 X36.591 Y135.422
G0 X38.349 Y135.98
G0 X38.349 Y136.779
G1 F1200 X38.829 Y137.258 E112.5763
G0 F6000 X39.481 Y136.779
G1 F1200 X39.96 Y137.258 E112.6484
G0 F6000 X40.609 Y136.775
G1 F1200 X41.092 Y137.258 E112.7211
G0 F6000 X41.48 Y136.515
G1 F1200 X42.223 Y137.258 E112.83294
G0 F6000 X42.223 Y138.06
G0 X36.582 Y137.988
G0 X36.591 Y135.422
G0 X41.936 Y135.449
G0 X42.27 Y136.173
G1 F1200 X43.354 Y137.258 E112.99618
G0 F6000 X43.354 Y138.06
G0 X44.486 Y138.06
G0 X44.486 Y137.258
G1 F1200 X42.973 Y135.746 E113.22383
G0 F6000 X43.605 Y135.246
G1 F1200 X45.617 Y137.258 E113.52668
G0 F6000 X45.617 Y138.06
G0 X46.748 Y138.06
G0 X46.748 Y137.258
G1 F1200 X44.159 Y134.669 E113.91637
G0 F6000 X44.643 Y134.022
G1 F1200 X47.88 Y137.258 E114.40352
G0 F6000 X47.88 Y138.06
G0 X49.011 Y138.06
G0 X49.011 Y137.258
G1 F1200 X45.051 Y133.298 E114.99957
G0 F6000 X45.375 Y132.491
G1 F1200 X50.143 Y137.258 E115.71717
G0 F6000 X50.143 Y138.06
G0 X51.274 Y138.06
G0 X51.274 Y137.258
G1 F1200 X45.588 Y131.572 E116.57301
G0 F6000 X44.795 Y131.481
G0 X44.862 Y130.526
G0 X45.66 Y130.513
G1 F1200 X52.405 Y137.258 E117.58826
G0 F6000 X52.405 Y138.06
G0 X53.537 Y138.06
G0 X53.537 Y137.258
G1 F1200 X45.657 Y129.379 E118.77427
G0 F6000 X45.657 Y128.58
G0 X46.789 Y128.58
G0 X46.789 Y129.379
G1 F1200 X54.668 Y137.258 E119.9602
G0 F6000 X54.668 Y138.06
G0 X55.799 Y138.06
G0 X55.799 Y137.258
G1 F1200 X47.92 Y129.379 E121.14613
G0 F6000 X47.92 Y128.58
G0 X49.051 Y128.58
G0 X49.051 Y129.379
G1 F1200 X56.931 Y137.258 E122.33214
G0 F6000 X56.931 Y138.06
G0 X58.062 Y138.06
G0 X58.062 Y137.258
G1 F1200 X50.183 Y129.379 E123.51807
G0 F6000 X50.183 Y128.58
G0 X51.314 Y128.58
G0 X51.314 Y129.379
G1 F1200 X59.194 Y137.258 E124.70408
G0 F6000 X59.194 Y138.06
G0 X60.325 Y138.06
G0 X60.325 Y137.258
G1 F1200 X52.446 Y129.379 E125.89001
G0 F6000 X52.446 Y128.58
G0 X53.577 Y128.58
G0 X53.577 Y129.379
G1 F1200 X61.456 Y137.258 E127.07595
G0 F6000 X61.456 Y138.06
G0 X62.588 Y138.06
G0 X62.588 Y137.258
G1 F1200 X54.708 Y129.379 E128.26196
G0 F6000 X54.708 Y128.58
G0 X55.84 Y128.58
G0 X55.84 Y129.379
G1 F1200 X63.719 Y137.258 E129.44789
G0 F6000 X63.719 Y138.06
G0 X64.85 Y138.06
G0 X64.85 Y137.258
G1 F1200 X56.971 Y129.379 E130.63382
G0 F6000 X56.971 Y128.58
G0 X58.102 Y128.58
G0 X58.102 Y129.379
G1 F1200 X65.982 Y137.258 E131.81983
G0 F6000 X65.982 Y138.06
G0 X67.113 Y138.06
G0 X67.113 Y137.258
G1 F1200 X59.234 Y129.379 E133.00576
G0 F6000 X59.234 Y128.58
G0 X60.365 Y128.58
G0 X60.365 Y129.379
G1 F1200 X68.244 Y137.258 E134.19169
G0 F6000 X68.244 Y138.06
G0 X69.376 Y138.06
G0 X69.376 Y137.258
G1 F1200 X61.497 Y129.379 E135.37763
G0 F6000 X61.497 Y128.58
G0 X62.628 Y128.58
G0 X62.628 Y129.379
G1 F1200 X70.507 Y137.258 E136.56356
G0 F6000 X70.507 Y138.06
G0 X71.639 Y138.06
G0 X71.639 Y137.258
G1 F1200 X63.759 Y129.379 E137.74957
G0 F6000 X63.759 Y128.58
G0 X64.891 Y128.58
G0 X64.891 Y129.379
G1 F1200 X71.69 Y136.178 E138.77294
G0 F6000 X72.49 Y136.178
G0 X72.49 Y135.046
G0 X71.69 Y135.046
G1 F1200 X66.022 Y129.379 E139.626
G0 F6000 X66.022 Y128.58
G0 X67.153 Y128.58
G0 X67.153 Y129.379
G1 F1200 X71.69 Y133.915 E140.30883
G0 F6000 X72.49 Y133.915
G0 X72.49 Y132.784
G0 X71.69 Y132.784
G1 F1200 X68.285 Y129.379 E140.82134
G0 F6000 X68.809 Y128.772
G1 F1200 X71.69 Y131.652 E141.25491
G0 F6000 X72.49 Y131.652
G0 X72.49 Y130.521
G0 X71.69 Y130.521
G1 F1200 X68.809 Y127.641 E141.68848
G0 F6000 X68.01 Y127.641
G0 X68.01 Y126.509
G0 X68.809 Y126.509
G1 F1200 X71.69 Y129.389 E142.12205
G0 F6000 X72.49 Y129.389
G0 X72.49 Y128.258
G0 X71.69 Y128.258
G1 F1200 X68.809 Y125.378 E142.55561
G0 F6000 X68.01 Y125.378
G0 X68.01 Y124.247
G0 X68.809 Y124.247
G1 F1200 X71.69 Y127.127 E142.98918
G0 F6000 X72.49 Y127.127
G0 X72.49 Y125.995
G0 X71.69 Y125.995
G1 F1200 X68.809 Y123.115 E143.42275
G0 F6000 X68.01 Y123.115
G0 X68.01 Y121.984
G0 X68.809 Y121.984
G1 F1200 X71.69 Y124.864 E143.85632
G0 F6000 X72.49 Y124.864
G0 X72.49 Y123.733
G0 X71.69 Y123.733
G1 F1200 X68.809 Y120.853 E144.28989
G0 F6000 X68.01 Y120.853
G0 X68.01 Y119.721
G0 X68.809 Y119.721
G1 F1200 X71.69 Y122.601 E144.72345
G0 F6000 X72.49 Y122.601
G0 X72.49 Y121.47
G0 X71.69 Y121.47
G1 F1200 X68.809 Y118.59 E145.15702
G0 F6000 X68.01 Y118.59
G0 X68.01 Y117.458
G0 X68.809 Y117.458
G1 F1200 X71.69 Y120.338 E145.59059
G0 F6000 X72.49 Y120.338
G0 X72.49 Y119.207
G0 X71.69 Y119.207
G1 F1200 X68.809 Y116.327 E146.02416
G0 F6000 X68.01 Y116.327
G0 X68.01 Y115.196
G0 X68.809 Y115.196
G1 F1200 X71.69 Y118.076 E146.45772
G0 F6000 X72.49 Y118.076
G0 X72.49 Y116.944
G0 X71.69 Y116.944
G1 F1200 X68.809 Y114.064 E146.89129
G0 F6000 X68.01 Y114.064
G0 X68.01 Y112.933
G0 X68.809 Y112.933
G1 F1200 X71.69 Y115.813 E147.32486
G0 F6000 X72.49 Y115.813
G0 X72.49 Y114.682
G0 X71.69 Y114.682
G1 F1200 X68.809 Y111.802 E147.75843
G0 F6000 X68.01 Y111.802
G0 X68.01 Y110.67
G0 X68.809 Y110.67
G1 F1200 X71.69 Y113.55 E148.19199
G0 F6000 X72.49 Y113.55
G0 X72.49 Y112.419
G0 X71.69 Y112.419
G1 F1200 X68.809 Y109.539 E148.62556
G0 F6000 X68.01 Y109.539
G0 X68.01 Y108.407
G0 X68.809 Y108.407
G1 F1200 X71.69 Y111.288 E149.0592
G0 F6000 X72.49 Y111.288
G0 X72.49 Y110.156
G0 X71.69 Y110.156
G1 F1200 X68.809 Y107.276 E149.49277
G0 F6000 X68.01 Y107.276
G0 X68.01 Y106.145
G0 X68.809 Y106.145
G1 F1200 X71.69 Y109.025 E149.92634
G0 F6000 X72.49 Y109.025
G0 X72.49 Y107.893
G0 X71.69 Y107.893
G1 F1200 X68.809 Y105.013 E150.35991
G0 F6000 X68.01 Y105.013
G0 X68.01 Y103.882
G0 X68.809 Y103.882
G1 F1200 X71.69 Y106.762 E150.79348
G0 F6000 X72.49 Y106.762
G0 X72.49 Y105.631
G0 X71.69 Y105.631
G1 F1200 X68.809 Y102.751 E151.22704
G0 F6000 X68.01 Y102.751
G0 X68.01 Y101.619
G0 X68.809 Y101.619
G1 F1200 X71.69 Y104.499 E151.66061
G0 F6000 X72.49 Y104.499
G0 X72.49 Y103.368
G0 X71.69 Y103.368
G1 F1200 X68.809 Y100.488 E152.09418
G0 F6000 X68.01 Y100.488
G0 X68.01 Y99.356
G0 X68.809 Y99.356
G1 F1200 X71.69 Y102.237 E152.52782
G0 F6000 X72.49 Y102.237
G0 X72.49 Y101.105
G0 X71.69 Y101.105
G1 F1200 X68.809 Y98.225 E152.96139
G0 F6000 X68.01 Y98.225
G0 X68.01 Y97.094
G0 X68.809 Y97.094
G1 F1200 X71.69 Y99.974 E153.39496
G0 F6000 X72.49 Y99.974
G0 X72.49 Y98.842
G0 X71.69 Y98.842
G1 F1200 X68.809 Y95.962 E153.82852
G0 F6000 X68.01 Y95.962
G0 X68.01 Y94.831
G0 X68.809 Y94.831
G1 F1200 X71.69 Y97.711 E154.26209
G0 F6000 X72.49 Y97.711
G0 X72.49 Y96.58
G0 X71.69 Y96.58
G1 F1200 X68.809 Y93.7 E154.69566
G0 F6000 X68.01 Y93.7
G0 X68.01 Y92.568
G0 X68.809 Y92.568
G1 F1200 X71.69 Y95.448 E155.12923
G0 F6000 X72.49 Y95.448
G0 X72.49 Y94.317
G0 X71.69 Y94.317
G1 F1200 X68.809 Y91.437 E155.56279
G0 F6000 X68.01 Y91.437
G0 X68.01 Y90.306
G0 X68.809 Y90.306
G1 F1200 X71.69 Y93.186 E155.99636
G0 F6000 X72.49 Y93.186
G0 X72.49 Y92.054
G0 X71.69 Y92.054
G1 F1200 X68.809 Y89.174 E156.42993
G0 F6000 X68.01 Y89.174
G0 X68.01 Y88.043
G0 X68.809 Y88.043
G1 F1200 X71.69 Y90.923 E156.8635
G0 F6000 X72.49 Y90.923
G0 X72.49 Y89.791
G0 X71.69 Y89.791
G1 F1200 X68.809 Y86.911 E157.29707
G0 F6000 X68.01 Y86.911
G0 X68.01 Y85.78
G0 X68.809 Y85.78
G1 F1200 X71.69 Y88.66 E157.73063
G0 F6000 X72.49 Y88.66
G0 X72.49 Y87.529
G0 X71.69 Y87.529
G1 F1200 X68.809 Y84.649 E158.1642
G0 F6000 X68.01 Y84.649
G0 X68.01 Y83.517
G0 X68.809 Y83.517
G1 F1200 X71.69 Y86.397 E158.59777
G0 F6000 X72.49 Y86.397
G0 X72.49 Y85.266
G0 X71.69 Y85.266
G1 F1200 X68.809 Y82.386 E159.03134
G0 F6000 X68.01 Y82.386
G0 X68.01 Y81.255
G0 X68.809 Y81.255
G1 F1200 X71.69 Y84.135 E159.4649
G0 F6000 X72.49 Y84.135
G0 X72.49 Y83.003
G0 X71.69 Y83.003
G1 F1200 X68.809 Y80.123 E159.89847
G0 F6000 X68.01 Y80.123
G0 X68.01 Y78.992
G0 X68.809 Y78.992
G1 F1200 X71.69 Y81.872 E160.33204
G0 F6000 X72.49 Y81.872
G0 X72.49 Y80.74
G0 X71.69 Y80.74
G1 F1200 X68.809 Y77.86 E160.76561
G0 F6000 X68.01 Y77.86
G0 X68.01 Y76.729
G0 X68.809 Y76.729
G1 F1200 X71.69 Y79.609 E161.19917
G0 F6000 X72.49 Y79.609
G0 X72.49 Y78.478
G0 X71.69 Y78.478
G1 F1200 X62.092 Y68.88 E162.64385
G0 F6000 X62.092 Y68.08
G0 X60.961 Y68.08
G0 X60.961 Y68.88
G1 F1200 X67.839 Y75.759 E163.67919
G0 F6000 X67.839 Y76.56
G0 X66.708 Y76.56
G0 X66.708 Y75.759
G1 F1200 X59.829 Y68.88 E164.7146
G0 F6000 X59.829 Y68.08
G0 X58.698 Y68.08
G0 X58.698 Y68.88
G1 F1200 X65.577 Y75.759 E165.75002
G0 F6000 X65.577 Y76.56
G0 X64.445 Y76.56
G0 X64.445 Y75.759
G1 F1200 X57.566 Y68.88 E166.78543
G0 F6000 X57.566 Y68.08
G0 X56.434 Y68.08
G0 X56.434 Y68.879
G1 F1200 X63.314 Y75.759 E167.821
G0 F6000 X63.314 Y76.56
G0 X62.182 Y76.56
G0 X62.182 Y75.759
G1 F1200 X55.303 Y68.879 E168.85649
G0 F6000 X55.303 Y68.08
G0 X54.172 Y68.08
G0 X54.172 Y68.879
G1 F1200 X61.051 Y75.759 E169.89198
G0 F6000 X61.051 Y76.56
